X: 35426
T: Rousay
R: reel
M: 4/4
K: Adorian
(3Bcd|ecAc ecAc|edcB A2 Bc|dBGB dBGB|dcBA G2 AB|
cABG A2 a2|gfed efge|dBAB GABd|c2 A2 A2:|
cB|A2 a2 abc'b|a2 e2 e3 d|B2 g2 gbag|f2 d2 d2 gf|
edeg a2 ab|aged efge|dBAB GABd|c2 A2 A2:|

